app/img/star-icon.svg

<svg width="17" height="13" viewBox="0 0 14 13" fill="none" xmlns="http://www.w3.org/2000/svg">
<path d="M7 0L8.5716 4.83688H13.6574L9.5429 7.82624L11.1145 12.6631L7 9.67376L2.8855 12.6631L4.4571 7.82624L0.342604 4.83688H5.4284L7 0Z" fill="#FFC01E"/>
</svg>

<svg width="17" height="13" viewBox="0 0 14 13" fill="none" xmlns="http://www.w3.org/2000/svg"><path d="M7 0l1.572 4.837h5.085l-4.114 2.99 1.572 4.836L7 9.673l-4.114 2.99 1.571-4.837-4.114-2.99h5.085L7 0z" fill="#FFC01E"/></svg>
